.local/share/icons/Gruvbox-Plus-Dark/status/48/bluetooth-disabled.svg

<?xml version="1.0" standalone="no"?><!-- Generator: Gravit.io --><svg xmlns="http://www.w3.org/2000/svg" xmlns:xlink="http://www.w3.org/1999/xlink" style="isolation:isolate" viewBox="0 0 48 48" width="48" height="48"><path d="M 38 30 L 38 18 C 38 10.27319 31.72681 4 24 4 L 24 4 C 16.27319 4 10 10.27319 10 18 L 10 30 C 10 37.72681 16.27319 44 24 44 L 24 44 C 31.72681 44 38 37.72681 38 30 Z" style="stroke:none;fill:#076678;stroke-miterlimit:10;"/><g opacity="0.2"><path d=" M 23 27.79 L 17.68 32.73 L 16.95 33.41 L 15.59 31.95 L 16.32 31.27 L 22.53 25.5 L 16.32 19.73 L 15.59 19.05 L 16.95 17.59 L 17.68 18.27 L 23 23.21 L 23 9.59 L 32.44 19.03 L 25.47 25.5 L 32.44 31.97 L 23 41.41 L 23 27.79 Z  M 25 23.21 L 29.56 18.97 L 25 14.41 L 25 23.21 Z  M 25 27.79 L 25 36.59 L 29.56 32.03 L 25 27.79 Z " fill-rule="evenodd" id="Compound Path" fill="#282828"/></g><path d=" M 23 26.79 L 17.68 31.73 L 16.95 32.41 L 15.59 30.95 L 16.32 30.27 L 22.53 24.5 L 16.32 18.73 L 15.59 18.05 L 16.95 16.59 L 17.68 17.27 L 23 22.21 L 23 8.59 L 32.44 18.03 L 25.47 24.5 L 32.44 30.97 L 23 40.41 L 23 26.79 Z  M 25 22.21 L 29.56 17.97 L 25 13.41 L 25 22.21 Z  M 25 26.79 L 25 35.59 L 29.56 31.03 L 25 26.79 Z " fill-rule="evenodd" id="Compound Path" fill="#ebdbb2"/><g opacity="0.1"><path d=" M 24 4 C 16.244 4 10 10.244 10 18 L 10 19 C 10 11.244 16.244 5 24 5 C 31.756 5 38 11.244 38 19 L 38 18 C 38 10.244 31.756 4 24 4 Z " id="Path" fill="#ebdbb2"/></g><g opacity="0.2"><path d=" M 10 30 L 10 31 C 10 38.756 16.244 45 24 45 C 31.756 45 38 38.756 38 31 L 38 30 C 38 37.756 31.756 44 24 44 C 16.244 44 10 37.756 10 30 Z " id="Path" fill="#282828"/></g><circle vector-effect="non-scaling-stroke" cx="37" cy="36" r="10" id="Ellipse" fill="#DA1636"/><g opacity="0.2"><path d=" M 46.979 36.414 C 46.757224 41.766408 42.356996 45.993343 37 46 C 31.706238 45.99798 27.331214 41.870666 27.021 36.586 C 27.01114 36.72384 27.004139 36.86187 27 37 C 27 42.522847 31.477153 47 37 47 C 42.522847 47 47 42.522847 47 37 C 46.99873 36.804503 46.991727 36.609086 46.979 36.414 L 46.979 36.414 Z " id="Path" fill="#282828"/></g><rect x="30.996" y="35.26" width="12" height="2" transform="matrix(0.707107,-0.707107,0.707107,0.707107,-14.804173,36.780436)" id="Rectangle" fill="#ebdbb2"/><rect x="30.996" y="35.26" width="12" height="2" transform="matrix(-0.707107,-0.707107,0.707107,-0.707107,37.515827,88.060436)" id="Rectangle" fill="#ebdbb2"/></svg>

<svg width="48" height="48" style="isolation:isolate" version="1.1" viewBox="0 0 48 48" xmlns="http://www.w3.org/2000/svg">
  <path d="m38 30v-12c0-7.7268-6.2732-14-14-14s-14 6.2732-14 14v12c0 7.7268 6.2732 14 14 14s14-6.2732 14-14z" fill="#076678"/>
  <path id="Compound Path" d="m23 27.79-5.32 4.94-0.73 0.68-1.36-1.46 0.73-0.68 6.21-5.77-6.21-5.77-0.73-0.68 1.36-1.46 0.73 0.68 5.32 4.94v-13.62l9.44 9.44-6.97 6.47 6.97 6.47-9.44 9.44zm2-4.58 4.56-4.24-4.56-4.56zm0 4.58v8.8l4.56-4.56z" fill="#282828" fill-rule="evenodd" opacity=".3" style="isolation:isolate"/>
  <path d="m23 26.79-5.32 4.94-0.73 0.68-1.36-1.46 0.73-0.68 6.21-5.77-6.21-5.77-0.73-0.68 1.36-1.46 0.73 0.68 5.32 4.94v-13.62l9.44 9.44-6.97 6.47 6.97 6.47-9.44 9.44v-13.62zm2-4.58 4.56-4.24-4.56-4.56v8.8zm0 4.58v8.8l4.56-4.56-4.56-4.24z" fill="#ebdbb2" fill-rule="evenodd"/>
  <path id="Path" d="m24 4c-7.756 0-14 6.244-14 14v1c0-7.756 6.244-14 14-14s14 6.244 14 14v-1c0-7.756-6.244-14-14-14z" fill="#ebdbb2" opacity=".2" style="isolation:isolate"/>
  <path d="m10 30v1c0 7.756 6.244 14 14 14s14-6.244 14-14v-1c0 7.756-6.244 14-14 14s-14-6.244-14-14z" fill="#282828" opacity=".2" style="isolation:isolate"/>
  <circle id="Ellipse" cx="37" cy="36" r="10" fill="#da1636" vector-effect="non-scaling-stroke" style="isolation:isolate"/>
  <path d="m46.979 36.414c-0.22178 5.3524-4.622 9.5793-9.979 9.586-5.2938-0.00202-9.6688-4.1293-9.979-9.414-0.00986 0.13784-0.016861 0.27587-0.021 0.414 0 5.5228 4.4772 10 10 10s10-4.4772 10-10c-0.0013-0.1955-0.0083-0.39091-0.021-0.586z" fill="#282828" opacity=".2" style="isolation:isolate"/>
  <path id="Rectangle" transform="rotate(-45)" d="m1.5192 45.799h-1.9998v5.0022l-4.9981-0.001381v1.9998l4.9981 0.001381v4.9995h1.9998v-4.9995l5.0008-0.001381v-1.9998l-5.0008 0.001381v-5.0022z" fill="#ebdbb2" style="isolation:isolate"/>
</svg>
